images/kyber.svg

<svg height="250" viewBox="0 0 250 250" width="250" xmlns="http://www.w3.org/2000/svg"><g fill="#31cb9e"><path d="m114.800781 125 73.734375 34.25c2.589844 1.199219 5.800782-.300781 5.800782-2.726562v-63.097657c0-2.402343-3.210938-3.925781-5.800782-2.726562zm0 0"/><path d="m184.304688 75.976562-49.011719-30.300781c-2.253907-1.402343-5.523438-.425781-6.140625 1.824219l-17.902344 67.449219 72.625-33.773438c2.40625-1.101562 2.621094-3.824219.429688-5.199219zm0 0"/><path d="m135.292969 204.324219 49.074219-30.324219c2.191406-1.351562 1.976562-4.101562-.433594-5.199219l-72.683594-33.777343 17.902344 67.476562c.585937 2.226562 3.855468 3.199219 6.140625 1.824219zm0 0"/><path d="m95.941406 125 19.289063-72.699219c.742187-2.851562-3.269531-4.925781-6.140625-3.152343l-49.414063 30.550781c-2.53125 1.574219-4.011719 4-4.011719 6.601562v77.449219c0 2.574219 1.480469 5.023438 4.011719 6.601562l49.414063 30.523438c2.871094 1.773438 6.882812-.300781 6.140625-3.148438zm0 0"/></g></svg>

<!-- Generator: Adobe Illustrator 21.0.0, SVG Export Plug-In . SVG Version: 6.00 Build 0)  -->
<svg xmlns="http://www.w3.org/2000/svg" xmlns:xlink="http://www.w3.org/1999/xlink" width="250px" height="250px" viewBox="0 0 250 250" version="1.1">
<g id="surface1">
<path style=" stroke:none;fill-rule:nonzero;fill:rgb(19.215687%,79.607844%,61.960787%);fill-opacity:1;" d="M 114.800781 125 L 188.535156 159.25 C 191.125 160.449219 194.335938 158.949219 194.335938 156.523438 L 194.335938 93.425781 C 194.335938 91.023438 191.125 89.5 188.535156 90.699219 Z M 114.800781 125 "/>
<path style=" stroke:none;fill-rule:nonzero;fill:rgb(19.215687%,79.607844%,61.960787%);fill-opacity:1;" d="M 184.304688 75.976562 L 135.292969 45.675781 C 133.039062 44.273438 129.769531 45.25 129.152344 47.5 L 111.25 114.949219 L 183.875 81.175781 C 186.28125 80.074219 186.496094 77.351562 184.304688 75.976562 Z M 184.304688 75.976562 "/>
<path style=" stroke:none;fill-rule:nonzero;fill:rgb(19.215687%,79.607844%,61.960787%);fill-opacity:1;" d="M 135.292969 204.324219 L 184.367188 174 C 186.558594 172.648438 186.34375 169.898438 183.933594 168.800781 L 111.25 135.023438 L 129.152344 202.5 C 129.738281 204.726562 133.007812 205.699219 135.292969 204.324219 Z M 135.292969 204.324219 "/>
<path style=" stroke:none;fill-rule:nonzero;fill:rgb(19.215687%,79.607844%,61.960787%);fill-opacity:1;" d="M 95.941406 125 L 115.230469 52.300781 C 115.972656 49.449219 111.960938 47.375 109.089844 49.148438 L 59.675781 79.699219 C 57.144531 81.273438 55.664062 83.699219 55.664062 86.300781 L 55.664062 163.75 C 55.664062 166.324219 57.144531 168.773438 59.675781 170.351562 L 109.089844 200.875 C 111.960938 202.648438 115.972656 200.574219 115.230469 197.726562 Z M 95.941406 125 "/>
</g>
</svg>
